svg/24/new.svg

<svg width="24" height="24" viewBox="0 0 24 24" fill="currentColor" xmlns="http://www.w3.org/2000/svg"><path fill-rule="evenodd" clip-rule="evenodd" d="M7.35872 11.0698L10.0201 10.0201L11.0697 7.35874C11.4027 6.51459 12.5973 6.51459 12.9303 7.35873L13.9799 10.0201L16.6413 11.0698C17.4854 11.4027 17.4854 12.5974 16.6413 12.9303L13.9799 13.9799L12.9303 16.6413C12.5973 17.4854 11.4027 17.4854 11.0697 16.6413L10.0201 13.9799L7.35872 12.9303C6.51457 12.5974 6.51457 11.4027 7.35872 11.0698ZM12.8235 11.1765L14.9116 12L12.8235 12.8235L12 14.9116L11.1765 12.8235L9.08841 12L11.1765 11.1765L12 9.08843L12.8235 11.1765Z"/><path fill-rule="evenodd" clip-rule="evenodd" d="M10.5899 2.58171C11.37 1.8061 12.63 1.8061 13.4101 2.58171L14.5918 3.75663C14.9652 4.1278 15.4698 4.33681 15.9962 4.33833L17.6626 4.34314C18.7627 4.34632 19.6536 5.2373 19.6568 6.33736L19.6616 8.00376C19.6631 8.53019 19.8722 9.03479 20.2433 9.40811L21.4182 10.5898C22.1939 11.3699 22.1939 12.63 21.4182 13.4101L20.2433 14.5918C19.8722 14.9651 19.6631 15.4697 19.6616 15.9962L19.6568 17.6626C19.6536 18.7626 18.7627 19.6536 17.6626 19.6568L15.9962 19.6616C15.4698 19.6631 14.9652 19.8721 14.5918 20.2433L13.4101 21.4182C12.63 22.1938 11.37 22.1938 10.5899 21.4182L9.40815 20.2433C9.03483 19.8721 8.53023 19.6631 8.0038 19.6616L6.3374 19.6568C5.23734 19.6536 4.34636 18.7626 4.34318 17.6626L4.33837 15.9962C4.33685 15.4697 4.12784 14.9651 3.75667 14.5918L2.58175 13.4101C1.80614 12.63 1.80614 11.3699 2.58175 10.5898L3.75667 9.40811C4.12784 9.03479 4.33685 8.53019 4.33837 8.00376L4.34318 6.33736C4.34636 5.2373 5.23734 4.34632 6.3374 4.34314L8.0038 4.33833C8.53023 4.33681 9.03483 4.1278 9.40815 3.75663L10.5899 2.58171ZM12.3525 3.64543L13.5343 4.82035C14.1876 5.46989 15.0706 5.83566 15.9919 5.83832L17.6583 5.84314C17.9333 5.84393 18.156 6.06667 18.1568 6.34169L18.1616 8.00809C18.1643 8.92934 18.5301 9.8124 19.1796 10.4657L20.3545 11.6474C20.5484 11.8425 20.5484 12.1575 20.3545 12.3525L19.1796 13.5342C18.5301 14.1875 18.1643 15.0706 18.1616 15.9918L18.1568 17.6582C18.156 17.9332 17.9333 18.156 17.6583 18.1568L15.9919 18.1616C15.0706 18.1643 14.1876 18.53 13.5343 19.1796L12.3525 20.3545C12.1575 20.5484 11.8425 20.5484 11.6475 20.3545L10.4657 19.1796C9.81244 18.53 8.92938 18.1643 8.00813 18.1616L6.34173 18.1568C6.06672 18.156 5.84397 17.9332 5.84318 17.6582L5.83837 15.9918C5.83571 15.0706 5.46993 14.1875 4.82039 13.5342L3.64547 12.3525C3.45157 12.1575 3.45157 11.8425 3.64547 11.6474L4.82039 10.4657C5.46993 9.8124 5.83571 8.92934 5.83837 8.00809L5.84318 6.34169C5.84397 6.06668 6.06672 5.84393 6.34173 5.84314L8.00813 5.83832C8.92938 5.83566 9.81244 5.46989 10.4657 4.82035L11.6475 3.64543C11.8425 3.45152 12.1575 3.45152 12.3525 3.64543Z"/></svg>

<svg xmlns="http://www.w3.org/2000/svg" width="24" height="24" fill="currentColor" viewBox="0 0 24 24">
  <path fill-rule="evenodd" d="m7.359 11.07 2.661-1.05 1.05-2.661c.333-.844 1.527-.844 1.86 0l1.05 2.661 2.661 1.05c.844.333.844 1.527 0 1.86l-2.661 1.05-1.05 2.661c-.333.844-1.527.844-1.86 0l-1.05-2.661-2.661-1.05c-.844-.333-.844-1.527 0-1.86Zm5.464.107 2.088.823-2.088.823L12 14.912l-.824-2.089L9.088 12l2.088-.823L12 9.088l.823 2.089Z" clip-rule="evenodd"/>
  <path fill-rule="evenodd" d="M10.59 2.582a2 2 0 0 1 2.82 0l1.182 1.175a2 2 0 0 0 1.404.581l1.667.005a2 2 0 0 1 1.994 1.994l.005 1.667a2 2 0 0 0 .581 1.404l1.175 1.182a2 2 0 0 1 0 2.82l-1.175 1.182a2 2 0 0 0-.581 1.404l-.005 1.667a2 2 0 0 1-1.994 1.994l-1.667.005a2 2 0 0 0-1.404.581l-1.182 1.175a2 2 0 0 1-2.82 0l-1.182-1.175a2 2 0 0 0-1.404-.581l-1.667-.005a2 2 0 0 1-1.994-1.994l-.005-1.667a2 2 0 0 0-.581-1.404L2.582 13.41a2 2 0 0 1 0-2.82l1.175-1.182a2 2 0 0 0 .581-1.404l.005-1.667a2 2 0 0 1 1.994-1.994l1.667-.005a2 2 0 0 0 1.404-.581l1.182-1.175Zm1.762 1.063 1.182 1.175a3.5 3.5 0 0 0 2.458 1.018l1.666.005a.5.5 0 0 1 .499.499l.005 1.666a3.5 3.5 0 0 0 1.018 2.458l1.175 1.181a.5.5 0 0 1 0 .705l-1.175 1.182a3.5 3.5 0 0 0-1.018 2.458l-.005 1.666a.5.5 0 0 1-.499.499l-1.666.005a3.5 3.5 0 0 0-2.458 1.018l-1.182 1.175a.5.5 0 0 1-.705 0l-1.181-1.175a3.5 3.5 0 0 0-2.458-1.018l-1.666-.005a.5.5 0 0 1-.499-.499l-.005-1.666a3.5 3.5 0 0 0-1.018-2.458l-1.175-1.182a.5.5 0 0 1 0-.705l1.175-1.181a3.5 3.5 0 0 0 1.018-2.458l.005-1.666a.5.5 0 0 1 .499-.499l1.666-.005a3.5 3.5 0 0 0 2.458-1.018l1.181-1.175a.5.5 0 0 1 .705 0Z" clip-rule="evenodd"/>
</svg>
